img/home/sm/infor.svg

<svg xmlns="http://www.w3.org/2000/svg" width="37" height="36" viewBox="0 0 37 36">
  <g fill="none" fill-rule="evenodd" transform="translate(-18 -18)">
    <rect width="72" height="72" fill="none"/>
    <g fill="#48484F" transform="translate(18 18)">
      <path d="M36.54288,35.9648521 L0.175176,35.9648521 C0.129168,35.7993373 0.129384,0.234745562 0.175392,0.0739171598 L36.543312,0.0739171598 C36.591264,0.241136095 36.590832,35.8021065 36.54288,35.9648521 L36.54288,35.9648521 Z M23.805792,22.4904142 C24.14772,22.4478107 24.49332,22.4248047 24.830712,22.3591953 C25.593408,22.2100828 26.271,21.8811834 26.835408,21.3471479 C27.62208,20.6030769 27.979776,19.6785799 27.995328,18.6147692 C28.018872,17.0145799 27.162,15.6783195 25.67916,15.0494911 C24.603264,14.5932071 23.494104,14.5608284 22.376736,14.8942012 C21.63672,15.1151006 21.00384,15.5104615 20.510712,16.1015858 C19.757736,17.003929 19.521216,18.0494201 19.685592,19.1890651 C19.85148,20.3382959 20.444832,21.2225325 21.444264,21.8343195 C22.16484,22.2754793 22.959936,22.4597396 23.805792,22.4904142 L23.805792,22.4904142 Z M9.15948,15.4109822 C9.15948,15.287858 9.159696,15.1949822 9.15948,15.1021065 C9.158184,14.8773728 9.144576,14.8611834 8.923608,14.8607574 C8.322264,14.8592663 7.72092,14.8594793 7.119576,14.8603314 C6.907464,14.8607574 6.889752,14.8771598 6.889536,15.0871953 C6.888672,17.4088757 6.888672,19.7307692 6.889536,22.0524497 C6.889536,22.2635503 6.907896,22.2808047 7.117416,22.2812308 C7.731504,22.2822959 8.345808,22.2818698 8.959896,22.2814438 C9.247824,22.2814438 9.248256,22.2808047 9.248256,21.9974911 C9.248256,20.8995976 9.247824,19.8019172 9.248688,18.7040237 C9.248688,18.3693728 9.252792,18.0349349 9.334008,17.7068876 C9.438552,17.2846864 9.648288,16.9459882 10.092816,16.8062485 C10.39176,16.7120947 10.698264,16.7071953 11.002176,16.7834556 C11.236104,16.8422485 11.421648,16.9783669 11.534184,17.1879763 C11.608056,17.3257988 11.675232,17.4757633 11.700936,17.627858 C11.745864,17.8941302 11.776752,18.1659408 11.77848,18.4358343 C11.786472,19.6217041 11.781936,20.808 11.781936,21.9940828 C11.781936,22.044568 11.782368,22.0948402 11.783664,22.1455385 C11.786256,22.2275503 11.827296,22.2748402 11.912832,22.2786746 C11.957544,22.2808047 12.002256,22.2812308 12.047184,22.2812308 C12.661272,22.2814438 13.27536,22.2814438 13.889448,22.2814438 C13.927896,22.2814438 13.966344,22.2808047 14.004576,22.2797396 C14.088816,22.2778225 14.135256,22.236071 14.13936,22.152142 C14.141736,22.1018698 14.141952,22.0513846 14.141952,22.0011124 C14.142168,21.3891124 14.143248,20.7768994 14.141736,20.1651124 C14.139576,19.3449941 14.141736,18.5246627 14.128992,17.7045444 C14.121216,17.2045917 14.05188,16.7106036 13.885992,16.2345089 C13.604328,15.4256805 13.039272,14.9310533 12.188232,14.7608521 C11.56464,14.6360237 10.9404,14.6483787 10.322208,14.7902485 C9.911808,14.8841893 9.533592,15.0499172 9.243288,15.3692308 C9.23184,15.3817988 9.210672,15.3858462 9.15948,15.4109822 L9.15948,15.4109822 Z M15.323472,17.6142249 L15.31764,17.6142249 C15.31764,19.0904379 15.317424,20.5664379 15.317856,22.0424379 C15.317856,22.2635503 15.334488,22.2808047 15.555672,22.2812308 C16.188984,22.2822959 16.822296,22.2825089 17.455608,22.2814438 C17.655408,22.2810178 17.675064,22.259716 17.679384,22.0654438 C17.680032,22.0339172 17.679384,22.0021775 17.679384,21.9708639 L17.679384,16.9934911 C17.679384,16.9430059 17.678304,16.8925207 17.680464,16.8422485 C17.683272,16.775574 17.719776,16.7370178 17.787816,16.7325444 C17.832312,16.7297751 17.87724,16.7310533 17.921952,16.7312663 C18.337752,16.7323314 18.753552,16.7353136 19.169352,16.7340355 C19.36872,16.7336095 19.390536,16.7103905 19.3914,16.5150533 C19.392912,16.1426982 19.391832,15.7705562 19.391832,15.3984142 C19.391832,15.2786982 19.394856,15.1585562 19.391184,15.0388402 C19.386432,14.8905799 19.36116,14.867787 19.2078,14.8607574 C19.156608,14.8586272 19.105416,14.8601183 19.054224,14.8603314 C18.657648,14.8603314 18.261072,14.8616095 17.864496,14.8603314 C17.69148,14.8599053 17.680464,14.8490414 17.6796,14.676284 C17.678088,14.3294911 17.673552,13.9824852 17.682192,13.6356923 C17.68608,13.4789112 17.705304,13.32 17.740512,13.1672663 C17.81784,12.8324024 18.02952,12.6306746 18.380952,12.5752899 C18.702576,12.5245917 19.01772,12.5386509 19.32876,12.6366391 C19.511496,12.6943669 19.543248,12.672426 19.553832,12.4853964 C19.583424,11.9626509 19.612152,11.4396923 19.6398,10.9169467 C19.649088,10.7380118 19.631808,10.7105325 19.446264,10.6822012 C19.212552,10.6464142 18.97776,10.6104142 18.74232,10.5974201 C18.13968,10.5639763 17.5392,10.5742012 16.955136,10.7529231 C16.248384,10.9691361 15.756552,11.4060355 15.518736,12.107929 C15.383088,12.5075503 15.328008,12.9201657 15.326064,13.3372544 C15.319368,14.7627692 15.323472,16.188497 15.323472,17.6142249 L15.323472,17.6142249 Z M31.234032,15.4284497 C31.222584,15.3464379 31.214376,15.3112899 31.213728,15.275716 C31.211784,15.1939172 31.2174,15.1116923 31.213296,15.0298935 C31.2066,14.8954793 31.178088,14.8692781 31.03812,14.8613964 C30.993624,14.8588402 30.948696,14.8605444 30.903768,14.8605444 C30.321648,14.8603314 29.739528,14.8603314 29.157408,14.8603314 C28.844208,14.8601183 28.844424,14.8599053 28.844424,15.1613254 C28.844208,17.4389112 28.844208,19.716497 28.844424,21.9940828 C28.844424,22.044355 28.84464,22.0948402 28.847232,22.1453254 C28.851336,22.2269112 28.89432,22.2737751 28.97856,22.2786746 C29.023272,22.2814438 29.067984,22.2814438 29.112696,22.2814438 C29.72052,22.2814438 30.328344,22.2816568 30.935952,22.2812308 C31.208112,22.2812308 31.214376,22.2746272 31.214376,22.0047337 C31.214376,21.0269822 31.213728,20.0490178 31.214592,19.0710533 C31.214808,18.6854911 31.239864,18.3024852 31.32432,17.9241657 C31.507056,17.1063905 31.983336,16.6829112 32.823144,16.5881183 C33.210648,16.5442367 33.588432,16.5859882 33.964272,16.6777988 C34.123896,16.7169941 34.163424,16.6937751 34.164288,16.5502012 C34.167312,15.9822959 34.167096,15.4146036 34.16364,14.8466982 C34.162992,14.7101538 34.130592,14.6775621 33.993864,14.6720237 C33.82776,14.6658462 33.661224,14.6677633 33.49512,14.6739408 C33.000264,14.6926864 32.514264,14.7631953 32.047704,14.9351006 C31.758696,15.0418225 31.493016,15.1892308 31.234032,15.4284497 L31.234032,15.4284497 Z M5.70996,18.5676923 L5.709528,18.5676923 L5.709528,15.0871953 C5.709528,15.0554556 5.70996,15.024142 5.708664,14.9926154 C5.705424,14.9082604 5.65704,14.8673609 5.574744,14.8633136 C5.523552,14.8607574 5.47236,14.8607574 5.421168,14.8607574 C4.82652,14.8603314 4.231872,14.8603314 3.63744,14.8603314 C3.351672,14.8603314 3.350808,14.8607574 3.350808,15.1464142 C3.350592,16.2813728 3.350808,17.4163314 3.350808,18.551503 C3.350808,19.7118107 3.350592,20.8719053 3.350808,22.032213 C3.350808,22.2763314 3.361824,22.2863432 3.612168,22.2865562 C4.238784,22.2867692 4.8654,22.2874083 5.4918,22.2859172 C5.691168,22.2857041 5.70996,22.2637633 5.70996,22.0673609 L5.70996,18.5676923 L5.70996,18.5676923 Z M5.691168,10.9020355 C5.61924,10.9327101 5.571288,10.9448521 5.532624,10.9708402 C4.852224,11.4294675 4.173768,11.8908639 3.492288,12.348213 C3.39228,12.4153136 3.346704,12.4951953 3.34908,12.6149112 C3.354264,12.9048284 3.34908,13.1949586 3.351456,13.4846627 C3.352968,13.6716923 3.375,13.6944852 3.55968,13.6949112 C4.205088,13.6964024 4.850712,13.6966154 5.495904,13.6949112 C5.690736,13.6944852 5.71104,13.6704142 5.710824,13.4725207 C5.710392,12.672213 5.710392,11.8716923 5.70888,11.0713846 C5.70888,11.0287811 5.70024,10.9859645 5.691168,10.9020355 L5.691168,10.9020355 Z"/>
      <path d="M25.629912,18.5691834 C25.636176,18.8622959 25.592544,19.1468876 25.474176,19.4184852 C25.278048,19.8677396 24.946056,20.1708639 24.471936,20.315929 C23.998248,20.4607811 23.52348,20.4522604 23.059728,20.2812071 C22.609368,20.1154793 22.298976,19.7980828 22.134816,19.3537278 C21.94668,18.8441893 21.942576,18.3261302 22.126392,17.8146746 C22.301568,17.3272899 22.641768,16.9943432 23.144616,16.835432 C23.616576,16.6861065 24.093072,16.6878107 24.556824,16.8575858 C25.172856,17.0829586 25.491888,17.5524497 25.605504,18.1736095 C25.618896,18.2477396 25.62408,18.323787 25.629048,18.3994083 C25.63272,18.455858 25.629912,18.5125207 25.629912,18.5691834"/>
    </g>
  </g>
</svg>

<svg xmlns="http://www.w3.org/2000/svg" width="37" height="36"><g fill="none" fill-rule="evenodd"><path d="M-18-18h72v72h-72z"/><g fill="#48484F"><path d="M36.543 35.965H.175C.13 35.799.13.235.175.074h36.368c.048.167.048 35.728 0 35.89zM23.806 22.49c.342-.042.687-.065 1.025-.13a3.964 3.964 0 0 0 2.004-1.013c.787-.744 1.145-1.668 1.16-2.732.024-1.6-.833-2.937-2.316-3.566-1.076-.456-2.185-.488-3.302-.155-.74.221-1.373.616-1.866 1.208-.753.902-.99 1.947-.825 3.087.165 1.15.759 2.034 1.758 2.645.72.441 1.516.626 2.362.656zM9.159 15.411v-.309c0-.225-.014-.24-.235-.241-.602-.002-1.203-.002-1.804 0-.213 0-.23.016-.23.226v6.965c0 .212.018.229.227.23H8.96c.288 0 .288-.001.288-.285v-3.293c0-.335.005-.67.086-.997.105-.422.314-.761.759-.9.299-.095.605-.1.91-.024.233.06.419.195.531.405.074.138.141.288.167.44.045.266.076.538.077.808.008 1.186.004 2.372.004 3.558 0 .05 0 .1.002.152.002.082.043.129.129.133.045.002.09.002.134.002a5311.325 5311.325 0 0 0 1.958-.001c.084-.002.13-.044.134-.128.003-.05.003-.1.003-.15v-1.837c-.002-.82 0-1.64-.013-2.46a4.658 4.658 0 0 0-.243-1.47c-.282-.81-.847-1.304-1.698-1.474a4.402 4.402 0 0 0-1.866.03c-.41.093-.788.259-1.079.578-.011.013-.032.017-.084.042zm6.164 2.203h-.005v4.428c0 .222.016.239.238.24h1.9c.2-.001.22-.022.223-.217.001-.031 0-.063 0-.094v-4.978l.001-.15c.003-.067.04-.106.108-.11.044-.003.09-.002.134-.002.416.001.832.004 1.247.003.2 0 .222-.024.222-.219.002-.372 0-.744 0-1.117 0-.12.004-.24 0-.36-.005-.147-.03-.17-.183-.177-.051-.002-.103 0-.154 0h-1.19c-.173-.001-.184-.012-.184-.185-.002-.347-.006-.694.002-1.04.004-.157.023-.316.059-.469.077-.335.289-.536.64-.592.322-.05.637-.036.948.062.182.057.214.035.225-.152.03-.522.058-1.045.086-1.568.01-.179-.008-.206-.194-.235-.233-.036-.468-.072-.704-.085-.602-.033-1.203-.023-1.787.156-.707.216-1.198.653-1.436 1.355-.136.4-.191.812-.193 1.23-.007 1.425-.003 2.85-.003 4.276zm15.911-2.186c-.011-.082-.02-.117-.02-.152-.002-.082.003-.164 0-.246-.007-.135-.036-.16-.176-.169-.044-.002-.09 0-.134 0h-1.747c-.313 0-.313-.001-.313.3v6.833c0 .05 0 .1.003.151.004.082.047.129.132.134.044.002.089.002.134.002h1.823c.272 0 .278-.006.278-.276V19.07c0-.386.026-.769.11-1.147.183-.818.66-1.241 1.5-1.336a3.232 3.232 0 0 1 1.14.09c.16.039.2.016.2-.128.003-.568.003-1.135 0-1.703-.001-.137-.033-.17-.17-.175a6.714 6.714 0 0 0-.499.002c-.495.019-.98.09-1.447.261a2.364 2.364 0 0 0-.814.493zM5.71 18.568v-3.48l-.001-.095c-.004-.085-.052-.126-.134-.13-.051-.002-.103-.002-.154-.002H3.637c-.285 0-.286 0-.286.285v6.886c0 .244.01.254.261.255l1.88-.001c.2 0 .218-.022.218-.219v-3.5zm-.019-7.666c-.072.03-.12.043-.158.069-.68.458-1.36.92-2.04 1.377a.287.287 0 0 0-.144.267c.005.29 0 .58.002.87.002.187.024.21.209.21.645.001 1.29.002 1.936 0 .195 0 .215-.025.215-.222 0-.8 0-1.601-.002-2.402 0-.042-.009-.085-.018-.169z"/><path d="M25.63 18.57c.006.292-.037.577-.156.848-.196.45-.528.753-1.002.898a2.164 2.164 0 0 1-1.412-.035 1.507 1.507 0 0 1-.925-.927 2.193 2.193 0 0 1-.009-1.54c.176-.487.516-.82 1.019-.979.472-.149.948-.147 1.412.023.616.225.935.694 1.049 1.316.013.074.018.15.023.225.004.057 0 .114 0 .17"/></g></g></svg>
